X: 1212
T: LONG ISLAND WALTZ
B: Oliver Ditson "The Boston Collection of Instrumental Music" 1910 p.121 #2
F: http://conquest.imslp.info/files/imglnks/usimg/8/8f/IMSLP175643-PMLP309456-bostoncollection00bost_bw.pdf
%: 2012 John Chambers <jc:trillian.mit.edu>
M: 3/8
L: 1/16
K: D
|:\
{^G}A2{G}A2{G}A2 | f4(ed) | (cdef).g2 | (cdef).g2 |\
{^G}A2{G}A2{G}A2 | f4(ed) | (cde)f.g.e | d4 H:|
|: cd |\
e3(fge) | b(a^ga).=g.f | (e^def).g.e | (dcdf).a2 |\
e3fge | b(a^ga).=g.f | (e^def).g.e | d4 :|
|: (Ad) |\
f2e2d2 | B4(ed) | (dcBA).B.c | (defd).A.d |\
f2e2d2 | B4ed | (dcBA).B.c | d4 "^D.C.":|

%%sep 1 1 500
%%sep 1 1 500
